Hatter-kde/actions/22/labplot-axis-horizontal.svg

<?xml version="1.0" encoding="UTF-8"?>
<svg viewBox="0 0 22 22" xmlns="http://www.w3.org/2000/svg">
 <defs id="defs3051">
  <style id="current-color-scheme" type="text/css">.ColorScheme-Text {
        color:#363636;
      }</style>
 </defs>
 <path class="ColorScheme-Text" d="m4 3v14h-1v1h1v1h1v-1h14v-1h-2v-2h-1v2h-3v-2h-1v2h-3v-2h-1v2h-3v-14h-1z" fill="currentColor"/>
</svg>

<svg xmlns="http://www.w3.org/2000/svg" viewBox="0 0 22 22">
  <defs id="defs3051">
    <style type="text/css" id="current-color-scheme">
      .ColorScheme-Text {
        color:#363636;
      }
      </style>
  </defs>
 <path 
     style="fill:currentColor;fill-opacity:1;stroke:none" 
     d="M 4 3 L 4 17 L 3 17 L 3 18 L 4 18 L 4 19 L 5 19 L 5 18 L 19 18 L 19 17 L 17 17 L 17 15 L 16 15 L 16 17 L 13 17 L 13 15 L 12 15 L 12 17 L 9 17 L 9 15 L 8 15 L 8 17 L 5 17 L 5 3 L 4 3 z "
     class="ColorScheme-Text"
     />
</svg>
